X: 3241
T: HUNTING THE HARE
%R: jig
B: James Kerr "Merry Melodies" v.3 p.27 #241
Z: 2016 John Chambers <jc:trillian.mit.edu>
N: The 2nd strain has initial repeat but no final repeat; fixed by adding final repeat.
M: 6/8
L: 1/8
K: D
(3(A/B/c/) |\
d2D FGA | Bed cBA | d2D FGA | Bec d2 ::\
A |\
fed fed | fed fed | ecd ecd | egf e3 |\
dcB dcB | dcB dcB | ced ced | ced c2 :|

%%sep 1 1 500
%%sep 1 1 500

